!!!COM: Palestrina, Giovanni Perluigi da
!!!OPR: Missa Salve regina
!!!OMD: Gloria
!!!OTL: Qui tollis
**kern	**kern	**kern	**kern	**kern
*Ibass	*Itenor	*Icalto	*Icalto	*Icant
!Bassus	!Tenor	!Altus 2	!Altus 1	!Cantus
*clefF4	*clefGv2	*clefG2	*clefG2	*clefG2
*k[b-]	*k[b-]	*k[b-]	*k[b-]	*k[b-]
*G:dor	*G:dor	*G:dor	*G:dor	*G:dor
*M4/2	*M4/2	*M4/2	*M4/2	*M4/2
=74	=74	=74	=74	=74
0r	0r	1g	1g	1g
.	.	1g	1b-	1dd
=75	=75	=75	=75	=75
0r	0r	1c	1cc	1ee-
.	.	2g	2b-	[1dd
.	.	2g	2b-	.
=76	=76	=76	=76	=76
0r	0r	2f	2a	2dd]
.	.	2d	2f	2dd
.	.	2.e-	[1g	2cc
.	.	.	.	2b-
.	.	4d	.	.
=77	=77	=77	=77	=77
0r	0r	4c	2g]	1cc
.	.	4B-	.	.
.	.	2c	2a	.
.	.	2B-	2b-	1dd
.	.	[2b-	[2g	.
=78	=78	=78	=78	=78
0r	0r	2b-]	2g]	2g
.	.	2a	2f#	2a
.	.	2g	2g	2b-
.	.	2f	[2a	[2cc
=79	=79	=79	=79	=79
0r	0r	1e-	4a]	4cc]
.	.	.	4g	4b-
.	.	.	1g	2g
.	.	[1d	.	1a
.	.	.	2f#	.
=80	=80	=80	=80	=80
0G	1G	2d]	1g	2b
.	.	2B	.	2dd
.	1d	1B	1g	1dd
=81	=81	=81	=81	=81
1C	1e-	1c	1g	1cc
2G	[1d	4B-	2g	[1dd
.	.	4c	.	.
2G	.	4d	2b-	.
.	.	4e	.	.
=82	=82	=82	=82	=82
2F	2d]	4f	2a	1dd]
.	.	4g	.	.
2D	2d	2a	2f	.
2.E-	2c	2r	2.g	1r
.	2B-	2g	.	.
4D	.	.	4f	.
=83	=83	=83	=83	=83
4C	1c	2g	1e-	1r
4BB-	.	.	.	.
2C	.	2a	.	.
1BB-	1d	2b-	2d	[1ff
.	.	2b-	[2f	.
=84	=84	=84	=84	=84
1.F	1.c	1.a	2f]	2ff]
.	.	.	2f	2ff
.	.	.	[1f	1ff
2F	2c	2a	.	.
=85	=85	=85	=85	=85
1F	1c	1a	1f]	2.cc
.	.	.	.	4cc
2.C	2.c	2.cc	2.g	2ee-
.	.	.	.	2ee-
4C	4c	4cc	4g	.
=86	=86	=86	=86	=86
2C	2c	2cc	2g	2ee-
2C	2c	2cc	2g	2ee-
1G	1d	1b	1g	1dd
=87	=87	=87	=87	=87
0C	2e	2cc	4g	1cc
.	.	.	4f	.
.	2.g	4c	4e	.
.	.	4d	4d	.
.	.	4e	2c	2.cc
.	4f	4f	.	.
.	4e	2g	[2cc	.
.	4d	.	.	4b-
=88	=88	=88	=88	=88
0F	4c	[0f	2cc]	2a
.	4A	.	.	.
.	2d	.	1b-	2b-
.	1c	.	.	1cc
.	.	.	2a	.
=89	=89	=89	=89	=89
0BB-	0B-	0f]	1b-	0dd
.	.	.	2r	.
.	.	.	[2f	.
=90	=90	=90	=90	=90
0r	0r	1B-	2f]	1dd
.	.	.	1b-	.
.	.	1f	.	1cc
.	.	.	4a	.
.	.	.	4g	.
=91	=91	=91	=91	=91
0r	1r	2f	2a	1dd
.	.	2g	2b-	.
.	2r	4d	1a	1ff
.	.	4e	.	.
.	2d	[2f	.	.
=92	=92	=92	=92	=92
0r	1c	2f]	2.cc	2.gg
.	.	2e	.	.
.	.	.	4b-	4gg
.	1d	1f	4a	2ff
.	.	.	4g	.
.	.	.	[2a	[2ff
=93	=93	=93	=93	=93
0r	2d	2d	2a]	2ff]
.	2.g	2G	2b-	4ee
.	.	.	.	4dd
.	.	1r	1a	4ee
.	4f	.	.	4dd
.	2f	.	.	[2dd
=94	=94	=94	=94	=94
0r	1e	2r	1g	2dd]
.	.	1g	.	2cc#
.	[1d	.	1a	2.dd
.	.	2f#	.	.
.	.	.	.	4cc
=95	=95	=95	=95	=95
1G	1d]	2g	0r	4b-
.	.	.	.	4a
.	.	2b-	.	2g
1F	1f	1cc	.	1a
=96	=96	=96	=96	=96
1G	2d	1.b-	2r	1g
.	2.g	.	1d	.
2B-	.	.	.	1r
.	4f	.	.	.
[2c	4e	4a	2c	.
.	4d	4g	.	.
=97	=97	=97	=97	=97
2c]	2c	4a	2e	0r
.	.	4g	.	.
2B-	2.d	1g	2d	.
1A	.	.	2e	.
.	4c	.	.	.
.	2c	2f#	4d	.
.	.	.	4c	.
=98	=98	=98	=98	=98
[0G	1.B	1g	1d	2r
.	.	.	.	1dd
.	.	2r	2d	.
.	2G	[2b	[2g	2dd
=99	=99	=99	=99	=99
0G]	1d	2b]	2g]	1.dd
.	.	2b	2g	.
.	1r	1b	1g	.
.	.	.	.	2ee
=100	=100	=100	=100	=100
0r	1r	1cc	1a	2ff
.	.	.	.	2ee
.	2r	2a	2f	4dd
.	.	.	.	4cc
.	2c	2g	2e	[2cc
=101	=101	=101	=101	=101
1r	2d	1f	1d	2cc]
.	1f	.	.	2b
2r	.	2g	1c	[1cc
[2c	4e	[2g	.	.
.	4d	.	.	.
=102	=102	=102	=102	=102
2c]	0e	2g]	0r	0cc]
2c	.	2a	.	.
1c	.	2g	.	.
.	.	2a	.	.
=103	=103	=103	=103	=103
1d	1f	2b-	1r	0r
.	.	2a	.	.
2B-	2d	4g	2r	.
.	.	4f	.	.
2A	2c	[2f	2f	.
=104	=104	=104	=104	=104
1G	1B-	2f]	2g	1r
.	.	2e	1b-	.
2.F	2c	1f	.	2r
.	2f	.	4a	2cc
4E	.	.	4g	.
=105	=105	=105	=105	=105
1D	2f	0r	1a	2dd
.	2f	.	.	2ff
1r	2.g	.	2.b-	4ee
.	.	.	.	4dd
.	.	.	.	[2dd
.	4f	.	4a	.
=106	=106	=106	=106	=106
1r	2e	1r	2g	2dd]
.	2e	.	2g	2cc#
1B-	2.d	2r	1f	[1dd
.	.	2f	.	.
.	4c	.	.	.
=107	=107	=107	=107	=107
2B-	4d	2g	1r	1dd]
.	4e	.	.	.
2B-	4f	2b-	.	.
.	4d	.	.	.
2.c	2.e	4a	2r	1r
.	.	4g	.	.
.	.	[2g	2g	.
4B-	4d	.	.	.
=108	=108	=108	=108	=108
2A	1c	2g]	2a	1r
2A	.	2f#	1cc	.
1G	2r	[1g	.	[1dd
.	[2d	.	4b	.
.	.	.	4a	.
=109	=109	=109	=109	=109
1G	2d]	1g]	1b	1dd]
.	1g	.	.	.
1c	.	2r	1cc	1ee
.	[2c	2g	.	.
=110	=110	=110	=110	=110
2F	2c]	1cc	2a	1.ff
2F	2f	.	2a	.
4F	2a	2cc	1f	.
4G	.	.	.	.
4A	2a	2cc	.	2ff
4B-	.	.	.	.
=111	=111	=111	=111	=111
1.c	2.g	1.cc	2r	4ee
.	.	.	.	4dd
.	.	.	4c	4ee
.	4f	.	4d	4ff
.	1e	.	4e	2gg
.	.	.	4f	.
2c	.	2cc	[2g	2cc
=112	=112	=112	=112	=112
0G	1d	2b-	4g]	1dd
.	.	.	4a	.
.	.	2.g	2b-	.
.	2.d	.	1B-	2r
.	.	4a	.	.
.	.	2b-	.	[2dd
.	4e	.	.	.
=113	=113	=113	=113	=113
0D	4f	0a	2.d	4dd]
.	4e	.	.	4ee
.	4d	.	.	2ff
.	4c	.	4e	.
.	[1d	.	2f	2dd
.	.	.	2d	[2ff
=114	=114	=114	=114	=114
1A	2d]	[0a	1e	2ff]
.	2c	.	.	2.ee
2.F	1f	.	1A	.
.	.	.	.	4dd
.	.	.	.	[2dd
4G	.	.	.	.
=115	=115	=115	=115	=115
0A	2.e	0a]	2r	2dd]
.	.	.	2.a	4cc#
.	4d	.	.	4b
.	1e	.	.	1cc#
.	.	.	4g	.
.	.	.	2e	.
=116	=116	=116	=116	=116
1D	2d	1a	1f#	2.dd
.	1d	.	.	.
.	.	.	.	4cc
1G	.	1r	1g	1b-
.	2e	.	.	.
=117	=117	=117	=117	=117
2A	2f	2r	1r	0r
2B-	2.g	2d	.	.
2.c	.	2e	1g	.
.	4f	.	.	.
.	4e	2e	.	.
4B-	4d	.	.	.
=118	=118	=118	=118	=118
2A	2c	2f	2a	1r
2G	2d	2g	2b-	.
[1F	2f	1a	2.cc	2r
.	4F	.	.	2cc
.	4G	.	4b-	.
=119	=119	=119	=119	=119
2F]	4A	1r	2a	2dd
.	4B-	.	.	.
2E	2c	.	2g	2ee
1D	2.d	2r	2f	2.ff
.	.	2f	2d	.
.	4c	.	.	4ee
=120	=120	=120	=120	=120
0r	2B-	2g	2d	2dd
.	2A	2a	2e	2cc
.	[1G	2.b-	2g	2.dd
.	.	.	2g	.
.	.	4a	.	4cc
=121	=121	=121	=121	=121
0r	2G]	2g	1d	4b-
.	.	.	.	4a
.	2G	2g	.	2b-
.	1d	1f#	1r	1a
*-	*-	*-	*-	*-
!!!CDT: 1525/^1526/-1594/2/2
!!!OCY: Italia
!!!AGN: Mass (Paraphrase)
!!!AST: renaissance, vocal
!!!ASW: Antiphon
!!!PWK: Masses, Book 11
!!!RNB: Cadence finals: D
!!!YOR: Le Opere Complete, v. 28, p. 185
!!!YOO: Rome, Italy: Fratelli Scalera
!!!END: 1992//
!!!EED: John Miller
!!!YEC: Copyright 2000, John Miller
!!!YEN: United States of America
!!!YEM: Rights to all derivative electronic formats reserved.
!!!YEM: Refer to licensing agreement for further details.
!!!YEM: This file must be accompanied by the licensing agreement.
!!!YEM: A copy of the licensing agreement may be found at http://www.music-cog.ohio-state.edu/HumdrumDatabases/Palestrina/license.txt
!!!EMD: converted to Humdrum by Bret Aarden
